static/assets/img/icons/theme/devices/tv-1.svg

<svg height="24" viewBox="0 0 24 24" width="24" xmlns="http://www.w3.org/2000/svg"><g fill="none" fill-rule="evenodd"><path d="m0 0h24v24h-24z" opacity="0"/><g fill="#000"><path d="m4.5 6h15c1.3807119 0 2.5.97004971 2.5 2.16666667v8.66666663c0 1.196617-1.1192881 2.1666667-2.5 2.1666667h-15c-1.38071187 0-2.5-.9700497-2.5-2.1666667v-8.66666663c0-1.19661696 1.11928813-2.16666667 2.5-2.16666667zm-.5 2v9h16v-9z" fill-rule="nonzero"/><path d="m4 8v9h16v-9z" opacity=".3"/><rect height="1" opacity=".3" rx=".5" width="10" x="7" y="20"/></g></g></svg>

<svg width="24px" height="24px" viewBox="0 0 24 24" version="1.1" xmlns="http://www.w3.org/2000/svg" xmlns:xlink="http://www.w3.org/1999/xlink">
    <title>Icon For TV#1</title>
    <g stroke="none" stroke-width="1" fill="none" fill-rule="evenodd">
        <rect opacity="0" x="0" y="0" width="24" height="24"></rect>
        <path d="M4.5,6 L19.5,6 C20.8807119,6 22,6.97004971 22,8.16666667 L22,16.8333333 C22,18.0299503 20.8807119,19 19.5,19 L4.5,19 C3.11928813,19 2,18.0299503 2,16.8333333 L2,8.16666667 C2,6.97004971 3.11928813,6 4.5,6 Z M4,8 L4,17 L20,17 L20,8 L4,8 Z" fill="#000000" fill-rule="nonzero"></path>
        <polygon fill="#000000" opacity="0.3" points="4 8 4 17 20 17 20 8"></polygon>
        <rect fill="#000000" opacity="0.3" x="7" y="20" width="10" height="1" rx="0.5"></rect>
    </g>
</svg>
